img/svg/social/print-icon-white.svg

<svg width="28" height="36" viewBox="0 0 28 36" fill="none" xmlns="http://www.w3.org/2000/svg">
<path d="M11.6725 23.4197C10.787 28.1902 9.70904 32.7647 6.51004 35.1535C5.52479 27.9435 7.96079 22.5272 9.09129 16.7785C7.16279 13.436 9.32404 6.70721 13.391 8.36446C18.396 10.405 9.05629 20.793 15.3265 22.0915C21.8733 23.446 24.5473 10.3962 20.4873 6.15071C14.6213 0.0239616 3.41254 6.01246 4.79154 14.7852C5.12754 16.9307 7.27829 17.5817 5.65079 20.5427C1.89704 19.6835 0.777043 16.635 0.922293 12.5697C1.15329 5.91971 6.72704 1.26121 12.3165 0.617211C19.3865 -0.198289 26.0208 3.28946 26.936 10.1372C27.9685 17.8652 23.7458 26.2372 16.1875 25.6335C14.1383 25.4707 13.2773 24.426 11.6725 23.4197Z" fill="white"/>
</svg>

<svg xmlns="http://www.w3.org/2000/svg" fill="none" viewBox="0 0 28 36"><path fill="#fff" d="M11.672 23.42c-.885 4.77-1.963 9.345-5.162 11.733-.985-7.21 1.45-12.626 2.581-18.374-1.928-3.343.233-10.072 4.3-8.415 5.005 2.041-4.335 12.429 1.935 13.727 6.547 1.355 9.221-11.695 5.161-15.94C14.621.024 3.413 6.012 4.792 14.785c.336 2.146 2.486 2.797.859 5.758-3.754-.86-4.874-3.908-4.729-7.973C1.153 5.92 6.727 1.26 12.316.617c7.07-.815 13.705 2.672 14.62 9.52 1.032 7.728-3.19 16.1-10.748 15.497-2.05-.163-2.91-1.208-4.515-2.214z"/></svg>
